!!!!SEGMENT: Gom3002-Alleluya_my_fault_chanter.krn
!!!id: Gom3002
!!!AGN: Chanson
!!!SCT: Schmidt-Görg (1975)
!!!voices: 4
!!!COM: Nicolas Gombert
!!!OTL: Alleluya my fault chanter
**kern	**kern	**kern	**kern
*part4	*part3	*part2	*part1
*staff4	*staff3	*staff2	*staff1
*I"Bassus	*I"Tenor	*I"Altus	*I"Superius
*I'B	*I'T	*I'A	*I'S
*clefF4	*clefGv2	*clefGv2	*clefG2
*k[b-]	*k[b-]	*k[b-]	*k[b-]
*F:	*F:	*F:	*F:
*M2/1	*M2/1	*M2/1	*M2/1
*met(C|)	*met(C|)	*met(C|)	*met(C|)
=1	=1	=1	=1
1r	0r	0r	1c
1C	.	.	2c
.	.	.	2c
=2	=2	=2	=2
2C	1G	0r	2g
2C	.	.	2g
2G	2G	.	2b-y
2G	2G	.	4b-y
.	.	.	8aL
.	.	.	8gJ
=3	=3	=3	=3
2B-y	2d	0r	2.f
4B-y	2d	.	.
8AL	.	.	4g
8GJ	.	.	.
2.F	2f	.	2.a
.	4f	.	.
4G	8eL	.	4b-y
.	8dJ	.	.
=4	=4	=4	=4
2.A	2.c	0r	4cc
.	.	.	4b-y
.	.	.	2a
4B-y	4d	.	.
4c	2e	.	2g
4B-y	.	.	.
2A	2f	.	2a
=5	=5	=5	=5
1G	4g	2r	2.b-y
.	4f	.	.
.	2e	2G	.
.	.	.	4cc
2r	1d	2G	4dd
.	.	.	4cc
2GG	.	2G	4b-y
.	.	.	4a
=6	=6	=6	=6
2GG	2r	1.d	2b-y
2GG	2D	.	4a
.	.	.	4g
[1D	2D	.	2a
.	2D	2d	2d
=7	=7	=7	=7
2D]	2A	1f	2d
2D	4r	.	2d
.	4D	.	.
1F	2D	2.f	2a
.	2D	.	2a
.	.	8eL	.
.	.	8dJ	.
=8	=8	=8	=8
2.F	2A	2c	1cc
.	2A	2d	.
8EL	.	.	.
8DJ	.	.	.
2.C	1c	2e	2.cc
.	.	2f	.
4D	.	.	8b-yL
.	.	.	8aJ
=9	=9	=9	=9
2E	2c	2g	2g
2F	4B-y	2.d	2a
.	4A	.	.
2G	2G	.	4b-y
.	.	4e	4cc
2F	2A	2f	[2dd
=10	=10	=10	=10
1E	2B-y	1g	2dd]
.	2c	.	2cc
2D	4d	2r	4b-y
.	4c	.	2a
2r	2B-y	2d	.
.	.	.	4g
=11	=11	=11	=11
2r	1A	2e	1a
2D	.	2f	.
4E	1r	4g	1r
4F	.	4f	.
4G	.	4e	.
4F	.	4d	.
=12	=12	=12	=12
4E	1r	4c	4g
4D	.	4d	4f
4C	.	4e	4g
8BB-yL	.	4f	4a
8AAJ	.	.	.
2C	2r	2e	2g
4D	4A	4d	4f
4E	4G	4c	4g
=13	=13	=13	=13
2D	4A	2d	2f
.	4B-y	.	.
2r	2A	4d	4f
.	.	4c	4e
2r	1r	4d	4d
.	.	4e	8g
.	.	.	8f
4G	.	2d	4g
4F	.	.	4a
=14	=14	=14	=14
4G	4d	4g	4g
4A	4c	4f	4cc
4G	4d	4g	4b-y
4c	4e	4a	4cc
2G	2.d	2.g	2b-y
4G	.	.	2b-y
4A	4d	4g	.
=15	=15	=15	=15
2F	2c	2f	2a
4F	4c	4e	4a
4G	4B-y	4d	4g
2D	1A	1d	2f
2r	.	.	4g
.	.	.	4f
=16	=16	=16	=16
4G	2r	0r	4g
4F	.	.	4a
4G	4d	.	2g
4A	4c	.	.
4G	4d	.	1r
4G	4e	.	.
2F	4d	.	.
.	4d	.	.
=17	=17	=17	=17
4F	4c	1r	1r
4E	4c	.	.
2D	2B-y	.	.
1r	1A	2F	2r
.	.	4F	2c
.	.	4G	.
=18	=18	=18	=18
2C	1r	4A	4c
.	.	4B-y	4d
4C	.	2c	4e
4D	.	.	4f
4E	2r	4G	2g
4F	.	2c	.
2G	2G	.	2d
.	.	4B-y	.
=19	=19	=19	=19
2C	4G	2e-i	2g
.	4A	.	.
2G	4B-y	2d	4g
.	4c	.	4a
4G	2d	2G	4b-y
4A	.	.	4cc
4B-y	2G	4r	2dd
4c	.	4G	.
=20	=20	=20	=20
2d	4r	4G	2g
.	4G	4A	.
2G	4G	4B-y	4dd
.	4A	4c	4cc
2r	4B-y	2d	4b-y
.	4c	.	4a
2GG	2d	2G	[2b-y
=21	=21	=21	=21
4GG	2G	0d	4b-]
4AA	.	.	4a
4BB-y	2G	.	1g
4C	.	.	.
1D	2B-y	.	.
.	2A	.	2f#i
=22	=22	=22	=22
1GG	1G	2d	2g
.	.	4d	2d
.	.	4e	.
2r	1r	4f	4d
.	.	4g	4e
[2D	.	2a	4f
.	.	.	4g
=23	=23	=23	=23
2D]	2A	2d	4a
.	.	.	4d
1F	4A	2.c	1a
.	4B-y	.	.
.	4c	.	.
.	4d	8B-yL	.
.	.	8AJ	.
2E	2e	2c	[2g
=24	=24	=24	=24
1D	2A	1d	2g]
.	2A	.	2f#i
1r	2c	2r	1g
.	2B-y	2d	.
=25	=25	=25	=25
1r	1A	2f	2a
.	.	2e	2cc
1D	1r	2.d	2b-y
.	.	.	[2a
.	.	4d	.
=26	=26	=26	=26
1F	0r	2c	2a]
.	.	2A	2a
2.E	.	2B-y	2g
.	.	2c	2e
4C	.	.	.
=27	=27	=27	=27
2D	2d	1A	4f
.	.	.	4g
2A	4c	.	4e
.	4A	.	8dL
.	.	.	8cJ
2G	2B-y	1r	2d
2E	2c	.	[2e
=28	=28	=28	=28
2.F	1A	1r	4e]
.	.	.	4d
.	.	.	1d
4G	.	.	.
1E	1G	2r	.
.	.	2g	2c#i
=29	=29	=29	=29
1r	2B-y	4f	4d
.	.	4d	4dd
.	4A	4e	4cc
.	8GL	4f	4a
.	8FJ	.	.
2G	2G	4d	4b-y
.	.	2.f	4cc
4F	2d	.	4a
4D	.	.	8gL
.	.	.	8fJ
=30	=30	=30	=30
2E	2.c	2e	2g
2F	.	2c	2a
.	4A	.	.
2E	2B-y	2e	1g
2C	2c	2e	.
=31	=31	=31	=31
2D	0A	1d	2f
2F	.	.	4f
.	.	.	4g
4F	.	2c	4a
4G	.	.	4b-y
4A	.	4c	2cc
4B-y	.	4d	.
=32	=32	=32	=32
2c	0r	4e	2g
.	.	4f	.
4c	.	2g	2e
4c	.	.	.
2B-y	.	4g	2d
.	.	4g	.
4A	.	4f	4c
4G	.	4e	4B-y
=33	=33	=33	=33
2F	2r	2d	1A
2r	2F	2c	.
1r	4F	2r	2c
.	4G	.	.
.	4A	2c	4c
.	4B-y	.	4d
=34	=34	=34	=34
2r	2c	4c	4e
.	.	4d	4f
2C	2c	4e	2g
.	.	4f	.
4C	2r	2g	2g
4D	.	.	.
4E	2G	2g	2r
4F	.	.	.
=35	=35	=35	=35
2G	4G	2r	2d
.	4A	.	.
2G	4B-y	1d	4d
.	4c	.	4e
2r	2d	.	4f
.	.	.	4g
2D	4d	2f	2a
.	4d	.	.
=36	=36	=36	=36
2F	2c	2r	4a
.	.	.	4a
4r	4B-y	2d	4g
4D	4A	.	4f
2E	4G	2c	2e
.	4G	.	.
4G	4G	4B-y	4d
4F	4A	4A	4d
=37	=37	=37	=37
2G	4B-y	2G	4d
.	4c	.	4e
2D	4d	2r	4f
.	4d	.	4g
4D	2d	2A	2a
4E	.	.	.
4F	[2c	4A	2a
4G	.	4B-y	.
=38	=38	=38	=38
2A	2c]	4c	2r
.	.	4d	.
4A	2r	4e	2cc
4A	.	4e	.
2G	1d	2g	4b-y
.	.	.	4b-y
2D	.	2f	[2a
=39	=39	=39	=39
2F	2c	4f	2a]
.	.	4e	.
4G	4B-y	4d	4g
4D	4A	4d	4f
2E	2G	2c	4g
.	.	.	4e
2D	2d	4B-y	2f
.	.	4A	.
=40	=40	=40	=40
2E	2c	2G	4g
.	.	.	4e
4D	4B-y	2d	2f
4D	4A	.	.
4E	[1Gl	4c	[1gl
4D	.	4B-y	.
2C	.	2e-i	.
=41	=41	=41	=41
00Gl	00G]	00dl	00g]
==	==	==	==
*-	*-	*-	*-
!!!system-decoration: [*]
!!!RDF**kern: i = editorial accidental
!!!RDF**kern: l = terminal long
!!!ENC: Benjamin Ory
!!!END: 2021/1/10
!!!EED: Benjamin Ory
!!!EEV: 2021/04/27
!!!YEC: Copyright 2021 Benjamin Ory, All Rights Reserved
!!!ONB: Translated from MusicXML on 2021/04/27
